X:1
T:Amazing Grace
C:Trad.
Q:1/4=60
M:3/4
K:F
L:1/4
V:1
C | F2 (A/F/) | A2 G | F2 D | C2 C | F2 (A/F/) | 
A2 G | c3- | c z A | c2 (A/F/) | A2 G | 
F2 D | C2 C | F2 (A/F/) | A2 G | F3- | F z |]